assets/icons/qvision/mark_as_unread.svg

<svg xmlns="http://www.w3.org/2000/svg" height="24" viewBox="0 0 24 24" width="24"><path d="M0 0h24v24H0V0z" fill="none"/><path d="M18.83 7h-2.6L10.5 4 4 7.4V17c-1.1 0-2-.9-2-2V7.17c0-.53.32-1.09.8-1.34L10.5 2l7.54 3.83c.43.23.73.7.79 1.17zM20 8H7c-1.1 0-2 .9-2 2v9c0 1.1.9 2 2 2h13c1.1 0 2-.9 2-2v-9c0-1.1-.9-2-2-2zm0 3.67L13.5 15 7 11.67V10l6.5 3.33L20 10v1.67z"/></svg>

<svg width="24" height="24" viewBox="0 0 24 24" fill="none" xmlns="http://www.w3.org/2000/svg">
<g clip-path="url(#clip0_147_4422)">
<path d="M18.83 7H16.23L10.5 4L4 7.4V17C2.9 17 2 16.1 2 15V7.17C2 6.64 2.32 6.08 2.8 5.83L10.5 2L18.04 5.83C18.47 6.06 18.77 6.53 18.83 7ZM20 8H7C5.9 8 5 8.9 5 10V19C5 20.1 5.9 21 7 21H20C21.1 21 22 20.1 22 19V10C22 8.9 21.1 8 20 8ZM20 11.67L13.5 15L7 11.67V10L13.5 13.33L20 10V11.67Z" fill="#323232"/>
</g>
<defs>
<clipPath id="clip0_147_4422">
<rect width="24" height="24" fill="white"/>
</clipPath>
</defs>
</svg>
